X: 120
T: Tiao fenqiang
L: 1/8
M: 2/4
K: F
F> G F G [I:setbarnb 1]| 
F DC2 | 
cc2f | 
f d/ c/B2 | 
f d c d | 
c AG2 | 
G F D F | 
G4 | 
G G/ A/c2 | 
B dA2 | 
G G c G | 
F4 | 
c c D F | 
G AG2 | 
D D F D | 
C4 |]

@@@ Tune index: 8994
